svgs/sharp-regular/chart-scatter-3d.svg

<svg xmlns="http://www.w3.org/2000/svg" viewBox="0 0 512 512"><!--! Font Awesome Pro 6.6.0 by @fontawesome - https://fontawesome.com License - https://fontawesome.com/license (Commercial License) Copyright 2024 Fonticons, Inc. --><path d="M64 32L0 32 0 96l64 0 0-64zM280 56l0-24-48 0 0 24 0 220.7L51.9 426.3 33.4 441.7l30.7 36.9 18.5-15.3L256 319.2 429.5 463.3l18.5 15.3 30.7-36.9-18.5-15.3L280 276.7 280 56zM0 224l0 64 64 0 0-64L0 224zm160-96l-64 0 0 64 64 0 0-64zM352 32l0 64 64 0 0-64-64 0zm160 96l-64 0 0 64 64 0 0-64zM352 224l0 64 64 0 0-64-64 0zM288 416l-64 0 0 64 64 0 0-64z"/></svg>

<svg xmlns="http://www.w3.org/2000/svg" viewBox="0 0 512 512"><!--! Font Awesome Pro 6.4.2 by @fontawesome - https://fontawesome.com License - https://fontawesome.com/license (Commercial License) Copyright 2023 Fonticons, Inc. --><path d="M64 32H0V96H64V32zM280 56V32H232V56 276.7L51.9 426.3 33.4 441.7l30.7 36.9 18.5-15.3L256 319.2 429.5 463.3l18.5 15.3 30.7-36.9-18.5-15.3L280 276.7V56zM0 224v64H64V224H0zm160-96H96v64h64V128zM352 32V96h64V32H352zm160 96H448v64h64V128zM352 224v64h64V224H352zM288 416H224v64h64V416z"/></svg>
